X: 32275
T: Piddellipom
R: barndance
M: 4/4
K: Amajor
(3AGF|E2 (3EFG A2A>c|B>AB<c A3c|d>cd>e f2f2|f>ed>c B2 (3AGF|
E2 (3EFG A2A>c|B>AB<c A3c|d>ef>e d>cB>A|B2A2 A2:|
|:f2|a>fd>f f>ec>e|a>fd<f e2e>f|a>fd>f f>ec>A|B>AB<c B2 (3AGF|
E2 (3EFG A2A>c|B>AB<c A3c|d>ef>e d>cB>A|B2A2 A2:|

